X: 32635
T: Pleasures Of Hope, The
R: hornpipe
M: 4/4
K: Dmajor
|:(3ABc|d>AF>A B>GE>G|F3A d>cB>A|B>ee>f (3gfe f>d|B3A B2 AG|
F>Ad>c d>AF>D|E>ee>f (3gfe c>A|d>fa>f b>ge>c|d2 d>cd2:|
|:(3ABc|d>fa>f b>ge>c|d>fa>f g>ec>A|d>fa>f (3gfe f>d|B3A B2 AG|
F>Ad>c d>AF>D|E>e e>f (3gfe c>A|d>fa>f b>ge>c|d2 d>cd2:|

